www/assets/images/test_icons/flags/DM.svg

<svg fill="none" height="15" viewBox="0 0 21 15" width="21" xmlns="http://www.w3.org/2000/svg" xmlns:xlink="http://www.w3.org/1999/xlink"><mask id="a" height="15" maskUnits="userSpaceOnUse" width="21" x="0" y="0"><path d="m19 0h-17c-1.10457 0-2 .89543-2 2v11c0 1.1046.89543 2 2 2h17c1.1046 0 2-.8954 2-2v-11c0-1.10457-.8954-2-2-2z" fill="#fff"/></mask><g mask="url(#a)"><path d="m19 0h-17c-1.10457 0-2 .89543-2 2v11c0 1.1046.89543 2 2 2h17c1.1046 0 2-.8954 2-2v-11c0-1.10457-.8954-2-2-2z" fill="#006c3d"/><g clip-rule="evenodd" fill-rule="evenodd"><path d="m10 7h-10v1h10v7h1v-7h10v-1h-10v-7h-1z" fill="#000"/><path d="m9 6v1h1v-7h-1v6h-9v1h10v-1zm1 1h11v-1h-12v1h1v-1h-1v9h1z" fill="#fdd200"/><path d="m12 9v-1h-1v7h1v-6h9v-1h-10v1zm-12-1h13v1h-13zm11-8h1v9h-1z" fill="#fff"/></g><path d="m10.5 11c1.933 0 3.5-1.567 3.5-3.5s-1.567-3.5-3.5-3.5-3.5 1.567-3.5 3.5 1.567 3.5 3.5 3.5z" fill="#d6172a"/><path clip-rule="evenodd" d="m9 6h1v1h-1zm2 0h1v1h-1zm0 2h1v1h-1zm-2 0h1v1h-1z" fill="#006c3d" fill-rule="evenodd"/><path clip-rule="evenodd" d="m10 6h1v2h-1z" fill="#955dcc" fill-rule="evenodd"/><path d="m19 .5h-17c-.82843 0-1.5.67157-1.5 1.5v11c0 .8284.67157 1.5 1.5 1.5h17c.8284 0 1.5-.6716 1.5-1.5v-11c0-.82843-.6716-1.5-1.5-1.5z" stroke="#000" stroke-opacity=".1"/></g></svg>

<svg width="21" height="15" viewBox="0 0 21 15" fill="none" xmlns="http://www.w3.org/2000/svg">
<mask id="mask0_3_164" style="mask-type:alpha" maskUnits="userSpaceOnUse" x="0" y="0" width="21" height="15">
<path d="M19 0H2C0.89543 0 0 0.89543 0 2V13C0 14.1046 0.89543 15 2 15H19C20.1046 15 21 14.1046 21 13V2C21 0.89543 20.1046 0 19 0Z" fill="white"/>
</mask>
<g mask="url(#mask0_3_164)">
<path d="M19 0H2C0.89543 0 0 0.89543 0 2V13C0 14.1046 0.89543 15 2 15H19C20.1046 15 21 14.1046 21 13V2C21 0.89543 20.1046 0 19 0Z" fill="#006C3D"/>
<path fill-rule="evenodd" clip-rule="evenodd" d="M10 7H0V8H10V15H11V8H21V7H11V0H10V7Z" fill="black"/>
<path fill-rule="evenodd" clip-rule="evenodd" d="M9 6V7H10V0H9V6H0V7H10V6H9ZM10 7H21V6H9V7H10V6H9V15H10V7Z" fill="#FDD200"/>
<path fill-rule="evenodd" clip-rule="evenodd" d="M12 9V8H11V15H12V9H21V8H11V9H12ZM0 8H13V9H0V8ZM11 0H12V9H11V0Z" fill="white"/>
<path d="M10.5 11C12.433 11 14 9.433 14 7.5C14 5.567 12.433 4 10.5 4C8.567 4 7 5.567 7 7.5C7 9.433 8.567 11 10.5 11Z" fill="#D6172A"/>
<path fill-rule="evenodd" clip-rule="evenodd" d="M9 6H10V7H9V6ZM11 6H12V7H11V6ZM11 8H12V9H11V8ZM9 8H10V9H9V8Z" fill="#006C3D"/>
<path fill-rule="evenodd" clip-rule="evenodd" d="M10 6H11V8H10V6Z" fill="#955DCC"/>
<path d="M19 0.5H2C1.17157 0.5 0.5 1.17157 0.5 2V13C0.5 13.8284 1.17157 14.5 2 14.5H19C19.8284 14.5 20.5 13.8284 20.5 13V2C20.5 1.17157 19.8284 0.5 19 0.5Z" stroke="black" stroke-opacity="0.1"/>
</g>
</svg>
